X: 160147
T: Pat Enright's Polka
S: M. Mulvihill
Z: B.Black
R: polka
M: 2/4
L: 1/8
K: G
D2 D2|EG G2|A2 AG|EG Ad|\
D2 D2|EG Ge|dB AB/2A/2|G4 :|
d2 Bd|e2 ge|dB AG|EG AB|\
d2 Bd|e2 ge|dB AB/2A/2|G4 |
d2 Bd|e2 ge|dB AG|EG AB|\
D2 D2|EG Ge|dB AB/2A/2|G4 :|
